X: 311
T: THE BANKS OF LOUGH FOYLE
T: Bruacha locha feabhail
B: O'Neill's 311
M: 6/8
L: 1/8
Z: 1999 by John Chambers <jc@trillian.mit.edu>
N: "Gaily"
N: "Collected by J.O'Neill"
K:C
(G/A/) \
| c2c (dcd) | (eg)>e d>cd | e>dc cAG | (GAc) d2(e/d/) |
| c2c (d>cd) | (eg)>e d>cd | e>dc cAG | GAc c2 :|
|| (d/e/) \
| (f2g) age | (g2e) (d2e) | fga age | (e/g/)(f/e/)(d/c/)  d2(e/d/) |
| c2c (dcd) | (eg)>e d>cd | e>dc cAG | GAc c2 ||


